!!!COM: Unknown
!!!CDT: Unknown
!!!OTL: National Anthem, Cambadia (Nokoreach)
!!!ENC: Davis, Matthew J.
!!Vocal Line Only
**kern
*clefG2
*k[b-]
*F:
*M4/4
=1-
4a
8a
8g
=2
2cc
8a
8g
8a
8g
=3
16aq
16gq
[2f
8f]
16g
16a
8b-
8b-
=4
8.b-
16g
8f
[8b-
8b-]
8g
4b-
8ccq
4.b-
8d
8f
8d
8g
8f
=6
8a
8g
8cc
8a
4g
4f
=7
[2d 8d]
16d
16f
8g
8a
=8
4a
4a
16g
16a
16g
16a
8f
8g
=9
2.a
4cc
=10
4dd
4cc
8.a
16cc
8g
8cc
=11
2a
==|!
*-
